X: 13101
T: Firebird
R: reel
M: 4/4
K: Amixolydian
|:fe|d~A3 ABdf|g2fg e~A3|ABcd e2ge|f2df edce|
d~A3 ABdf|g2fg e~A3|ABcd e2ge|edce d2:|
|:fg|a3g f3e|d~A3 ABdf|g3f ~e3f|gagf e2fd|
a3g f3e|1 d~A3 ABdf|g3f ~e3d|cdef de:|2 dA3 AGAB|=c3B =cded|^cdef d2||

